build/communication/VKVideoSolid.svg

<svg xmlns="http://www.w3.org/2000/svg" fill="none" viewBox="0 0 24 24" focusable="false"><path d="M0 0H24V24H0z"/><path fill="#74767B" fill-rule="evenodd" d="M20.8418 6.89969C20.6836 5.72336 20.3674 4.89795 19.7346 4.26529C19.1021 3.63266 18.2766 3.31635 17.1003 3.15817C16.99 3.14334 16.8767 3.12991 16.76 3.11774C15.6331 3 14.2058 3 12.3601 3L11.6399 3C9.65796 3 8.15845 3 6.99536 3.14575C5.76782 3.29956 4.91504 3.61566 4.26538 4.26529C3.63257 4.89795 3.31641 5.72336 3.1582 6.89969C3.14331 7.00998 3.12988 7.12335 3.11768 7.23993C3 8.36685 3 9.79425 3 11.64L3 12.36C3 14.342 3 15.8416 3.14575 17.0047C3.29956 18.2321 3.61572 19.0851 4.26538 19.7347C4.80908 20.2785 5.49536 20.5886 6.42456 20.7654C7.65723 21 9.31738 21 11.6399 21L12.3601 21C14.3967 21 15.9241 21 17.1003 20.8418C18.2766 20.6837 19.1021 20.3673 19.7346 19.7347C20.2786 19.1909 20.5886 18.5046 20.7654 17.5754C21 16.3428 21 14.6826 21 12.36L21 11.64C21 9.6033 21 8.07599 20.8418 6.89969ZM10.6555 8.68079C10.4341 8.98322 10.4341 9.50879 10.4341 10.56L10.4341 13.44C10.4341 14.4894 10.4341 15.015 10.6555 15.3192C10.8479 15.5838 11.1433 15.7548 11.469 15.789C11.8418 15.8284 12.2932 15.5679 13.1968 15.0466L15.7251 13.5861C16.6179 13.0699 17.0667 12.8105 17.2183 12.4698C17.3513 12.171 17.3513 11.829 17.2183 11.5302C17.0652 11.1882 16.6116 10.9254 15.7007 10.3998L13.2078 8.95981C12.2971 8.4342 11.8416 8.17139 11.469 8.211C11.1433 8.24521 10.8479 8.4162 10.6555 8.68079ZM7.88428 20.2141C7.56445 20.193 7.26953 20.1651 6.99585 20.1283C5.89917 19.9808 5.25098 19.7022 4.77441 19.2256C4.29785 18.749 4.01929 18.1008 3.87183 17.0043C3.72144 15.887 3.71997 14.4168 3.71997 12.36L3.71997 11.64C3.71997 9.58319 3.72144 8.11298 3.87183 6.99573C4.01929 5.89917 4.29785 5.25098 4.77441 4.77441C5.25098 4.29785 5.89917 4.01917 6.99585 3.87173C7.26709 3.83524 7.55957 3.80753 7.87598 3.78647C7.65332 3.92087 7.45117 4.07846 7.26611 4.26361C6.00049 5.52899 6.00049 7.56479 6.00049 11.6382L6.00049 12.3582C6.00049 16.4316 6.00049 18.4674 7.26611 19.7328C7.45312 19.9198 7.6582 20.0788 7.88428 20.2141Z"/></svg>

<svg xmlns="http://www.w3.org/2000/svg" fill="none" viewBox="0 0 24 24" focusable="false"><path fill="none" d="M0 0h24v24H0z"/><path fill="#74767B" fill-rule="evenodd" d="M20.84 6.89c-.16-1.17-.48-2-1.11-2.63s-1.46-.95-2.63-1.11c-.11-.01-.23-.03-.34-.04C15.63 3 14.2 3 12.36 3h-.73c-1.98 0-3.48 0-4.64.14-1.23.15-2.08.47-2.73 1.12-.63.63-.95 1.46-1.11 2.63-.01.11-.03.23-.04.34C3 8.36 3 9.79 3 11.64v.72c0 1.98 0 3.48.14 4.64.15 1.23.47 2.08 1.12 2.73.54.54 1.23.85 2.16 1.03 1.23.24 2.89.24 5.21.24h.73c2.03 0 3.56 0 4.74-.16 1.17-.16 2-.48 2.63-1.11.54-.54.85-1.23 1.03-2.16.24-1.23.24-2.89.24-5.21v-.72c0-2.04 0-3.57-.16-4.75M10.65 8.68c-.22.3-.22.82-.22 1.88v2.88c0 1.04 0 1.57.22 1.87.19.27.49.44.81.47.38.04.83-.22 1.73-.74l2.53-1.46c.89-.52 1.34-.77 1.49-1.12.14-.29.14-.64 0-.93-.15-.35-.6-.61-1.51-1.14l-2.5-1.44c-.91-.52-1.36-.78-1.74-.74-.32.03-.62.2-.81.47M7.88 20.21c-.32-.02-.62-.05-.89-.09-1.1-.14-1.74-.42-2.22-.9s-.76-1.12-.9-2.22c-.15-1.12-.16-2.59-.16-4.64v-.72c0-2.06.01-3.53.16-4.65.14-1.1.42-1.74.9-2.22s1.12-.76 2.22-.9c.27-.04.56-.07.88-.09-.22.14-.42.29-.61.48C6 5.52 6 7.56 6 11.63v.72c0 4.08 0 6.11 1.26 7.38.19.18.39.34.62.48"/></svg>
